X:1
T:Paddy Fahys reel [7]
M:4/4
L:1/8
Q:220
C:Paddy Fahy
R:reel
K:Gdor
A ||: B2dB DGBd | ~c2cA FAcA | B2dB DGBd | ~c2cA BGGA |
B2GA BDGB | AD^FD c2=Bc | dg~g2 dc=Bd |1 c=BcF DGGA :|2 c=BcF DG=Bd || 
g^fgd Bcge | f2cf AcfA | g^fgd A=BcA |dg^fa ~g2ga |
bga^f gfdc | (3=Bcd BG D2^FA | dgg2 dc=Bd|1 c=BcF DGBd :||2 c=BcF DGGA ||

composer: Paddy Fahey
